X:381
T:Brännarepolskan.
R:polska
S:Efter »Florsen» i Burs.
N:Kallades så, emedan pigorna å en del av Gotland alltid sjöngo den för att hålla modet uppe, då de lågo ute i brygghuset om nätterna ock brände brännvin.
O:Gotland, Burs
M:3/4
L:1/16
K:C
GAGF ECEG G2c2|Bcdc BGBd d2f2|edcB cdef g3B|cBce dcBA G4|
GAGF ECEG G2c2|Bcdc BGBd d2f2|edcB cdef g2^fg|a3B B4 c4::
egeg egeg g2fe|dfef dfef f2ed|egeg egeg g2fe|dfef dfef f2ed|
cdcB cdef g2^fg|a3B B4 c4:|

